images/linkedin-1.svg

<svg width="40" height="40" viewBox="0 0 40 40" fill="none" xmlns="http://www.w3.org/2000/svg">
<path d="M40 20C40 25.5228 37.7614 30.5228 34.1421 34.1421C30.5228 37.7614 25.5228 40 20 40C14.4772 40 9.47715 37.7614 5.85786 34.1421C2.23858 30.5228 0 25.5228 0 20C0 14.4772 2.23858 9.47715 5.85786 5.85786C9.47715 2.23858 14.4772 0 20 0C25.5228 0 30.5228 2.23858 34.1421 5.85786C37.7614 9.47715 40 14.4772 40 20Z" fill="#4D5AE5"/>
<g clip-path="url(#clip0_304365_678)">
<path d="M27.9961 27.9999V27.9992H28.0001V22.1312C28.0001 19.2605 27.3821 17.0492 24.0261 17.0492C22.4128 17.0492 21.3301 17.9345 20.8881 18.7739H20.8414V17.3172H17.6594V27.9992H20.9728V22.7099C20.9728 21.3172 21.2368 19.9705 22.9614 19.9705C24.6608 19.9705 24.6861 21.5599 24.6861 22.7992V27.9999H27.9961Z" fill="#F4F4FD"/>
<path d="M12.264 17.3179H15.5814V27.9999H12.264V17.3179Z" fill="#F4F4FD"/>
<path d="M13.9214 11.9999C12.8607 11.9999 12.0001 12.8605 12.0001 13.9212C12.0001 14.9819 12.8607 15.8605 13.9214 15.8605C14.9821 15.8605 15.8427 14.9819 15.8427 13.9212C15.8421 12.8605 14.9814 11.9999 13.9214 11.9999V11.9999Z" fill="#F4F4FD"/>
</g>
<defs>
<clipPath id="clip0_304365_678">
<rect width="16" height="16" fill="white" transform="translate(12.0001 11.9999)"/>
</clipPath>
</defs>
</svg>

<svg xmlns="http://www.w3.org/2000/svg" width="40" height="40" fill="none"><path fill="#4D5AE5" d="M40 20a19.937 19.937 0 0 1-5.858 14.142A19.937 19.937 0 0 1 20 40a19.937 19.937 0 0 1-14.142-5.858A19.937 19.937 0 0 1 0 20 19.938 19.938 0 0 1 5.858 5.858 19.938 19.938 0 0 1 20 0a19.937 19.937 0 0 1 14.142 5.858A19.937 19.937 0 0 1 40 20Z"/><g fill="#F4F4FD" clip-path="url(#a)"><path d="M27.996 28H28V22.13c0-2.87-.618-5.082-3.974-5.082-1.613 0-2.696.886-3.138 1.725h-.047v-1.457H17.66V28h3.314v-5.29c0-1.392.264-2.738 1.988-2.738 1.7 0 1.725 1.589 1.725 2.828V28h3.31ZM12.264 17.318h3.317V28h-3.317V17.318ZM13.921 12c-1.06 0-1.92.86-1.92 1.921 0 1.06.86 1.94 1.92 1.94 1.061 0 1.922-.88 1.922-1.94S14.98 12 13.92 12Z"/></g><defs><clipPath id="a"><path fill="#fff" d="M12 12h16v16H12z"/></clipPath></defs></svg>
